X:1
T:Title
%%score [ ( 1 2 ) ( 3 4 ) ] { ( 5 6 ) | 7 }
L:1/8
Q:1/4=120
M:4/4
K:C
V:1 treble nm="Midi_74"
V:2 treble 
V:3 bass nm="Midi_74"
V:4 bass 
V:5 treble nm="Org."
V:6 treble 
V:7 bass 
V:1
 (c6 B2) | A4 d4 |{c} B8 || (c6 B2) | A4 B4 | ^G4 ^F4 | E8 || (E6 ^G2) | A4 B4 |{A} ^G8 || %10
 (B6 c2) | d4 c4 |"^John Camidge\n(1790-1859)" B4 ^G4 | A8 |] %14
V:2
 E8 | E4 F4 | F8 || (E6 D2) | C4 F4 | E4 ^D4 | E8 || E8 | E4 F4 | E8 || E8 | E4 E4 | F4 E4 | E8 |] %14
V:3
 (E6 D2) | C4 F4 |{E} D8 || (C6 E2) | E4 D4 | B,4 A,4 | (^G,6 B,2) || (A,6 D2) | C4 B,4 | B,8 || %10
 (B,6 A,2) | ^G,4 A,4 | A,4 D4 | C8 |] %14
V:4
 A,8 | A,4 A,4 | A,8 || (A,,6 B,,2) | C,4 D,4 | E,4 B,,4 | (E,6 D,2) || (C,6 B,,2) | A,,4 D,4 | %9
 E,8 || ([^G,,^G,]6 [A,,A,]2) | [B,,B,]4 [A,,A,]4 | D,4 E,4 | A,,8 |] %14
V:5
 c6 B2 | A4 d4 |{c} B8 || c6 B2 | A4 B4 | ^G4 ^F4 | E8 || E6 ^G2 | A4 B4 |{A} ^G8 || B6 [Ac]2 | %11
 d4 c4 | B4 ^G4 | A8 |] %14
V:6
 E6 D2 | C4 [DF]4 | [DF]8 || [CE]6 [DE^G]2 | E4 [DF]4 | [B,E]4 [A,B,^D]4 | [^G,B,E]8 || A,6 [DE]2 | %8
 [CE]4 [B,F]4 | [B,E]8 || E8 | [E^G]4 [EA]4 | [DF]4 [B,DE]4 | [CE]8 |] %14
V:7
 [A,,A,]8 | [A,,A,]4 [A,,A,]4 | [A,,A,]8 || A,,6 B,,2 | C,4 D,4 | E,4 B,,4 | [E,,E,]6 D,2 || %7
 C,6 B,,2 | A,,4 D,4 | E,8 || [^G,,^G,]6 [A,,A,]2 | [B,,B,]4 [A,,A,]4 | D,4 E,4 | [A,,A,]8 |] %14

